!!!!SEGMENT: Mou2007-Gaude_Barbara.krn
!!!id: Mou2007
!!!AGN: Motet
!!!SCT: Anglés (1962)
!!!voices: 4
!!!COM: Jean Mouton
!!!OTL: Gaude Barbara
**kern	**kern	**kern	**kern
*part4	*part3	*part2	*part1
*staff4	*staff3	*staff2	*staff1
*I"Bassus	*I"Tenor	*I"Altus	*I"Superius
*I'B	*I'T	*I'A	*I'S
*clefF4	*clefGv2	*clefG2	*clefG2
*k[]	*k[]	*k[]	*k[]
*C:	*C:	*C:	*C:
*M2/1	*M2/1	*M2/1	*M2/1
*met(C|)	*met(C|)	*met(C|)	*met(C|)
!!section: Prima pars: Gaude Barbara
!!!OMD: Prima pars: Gaude Barbara
=1	=1	=1	=1
0r	0r	1.A	0r
.	.	2B	.
=2	=2	=2	=2
0r	0r	1c	0r
.	.	2.d	.
.	.	4c	.
=3	=3	=3	=3
0r	0r	4d	0a
.	.	4e	.
.	.	1f	.
.	.	4e	.
.	.	4d	.
=4	=4	=4	=4
0r	0r	1e	1cc
.	.	1d	[1dd
=5	=5	=5	=5
0r	0r	1f	2dd]
.	.	.	2cc
.	.	2e	1cc
.	.	[2f	.
=6	=6	=6	=6
0r	0r	4f]	1.ff
.	.	4e	.
.	.	4d	.
.	.	4c	.
.	.	2d	.
.	.	2c	2ee
=7	=7	=7	=7
0r	0r	2f	2dd
.	.	2g	4cc
.	.	.	4b
.	.	1a	2.cc
.	.	.	4dd
=8	=8	=8	=8
0r	0r	2g	2ee
.	.	2f	1dd
.	.	1e	.
.	.	.	2cc#i
=9	=9	=9	=9
0r	0r	0d	2.dd
.	.	.	4cc
.	.	.	2b
.	.	.	[2a
=10	=10	=10	=10
1.A	0r	0r	4a]
.	.	.	4g
.	.	.	4f
.	.	.	4e
.	.	.	2f
2B	.	.	2g
=11	=11	=11	=11
1c	0r	0r	1e
1d	.	.	1d
=12	=12	=12	=12
2D	0A	0r	0r
1F	.	.	.
4E	.	.	.
4D	.	.	.
=13	=13	=13	=13
1E	1c	0r	0r
1D	[1d	.	.
=14	=14	=14	=14
1F	2d]	0r	0r
.	2c	.	.
2E	1c	.	.
[2F	.	.	.
=15	=15	=15	=15
4F]	1.f	0r	0r
4E	.	.	.
4D	.	.	.
4C	.	.	.
2D	.	.	.
2C	2e	.	.
=16	=16	=16	=16
2F	2d	0r	0r
2G	4c	.	.
.	4B	.	.
1A	2.c	.	.
.	4d	.	.
=17	=17	=17	=17
2G	2e	0r	0r
2F	1d	.	.
1E	.	.	.
.	2c#i	.	.
=18	=18	=18	=18
0D	1d	0a	0r
.	2r	.	.
.	[2f	.	.
=19	=19	=19	=19
1r	4f]	1a	1.ff
.	4e	.	.
.	4d	.	.
.	4c	.	.
2r	2d	1a	.
2A	2c	.	2ee
=20	=20	=20	=20
1B-X	2f	1d	2dd
.	2g	.	4cc
.	.	.	4b
1A	1a	[1e	2.cc
.	.	.	4dd
=21	=21	=21	=21
2c	2g	2e]	4ee
.	.	.	4dd
2d	2f	4f	1dd
.	.	4g	.
1A	1e	1a	.
.	.	.	2cc#i
=22	=22	=22	=22
[0D	2r	0f	1dd
.	1d	.	.
.	.	.	1r
.	2d	.	.
=23	=23	=23	=23
0D]	2.d	0r	1.a
.	4e	.	.
.	1f	.	.
.	.	.	2a
=24	=24	=24	=24
1r	2d	0r	2.a
.	1f	.	.
.	.	.	4b
[1A	.	.	1cc
.	4e	.	.
.	4d	.	.
=25	=25	=25	=25
2A]	0c	1.e	2a
2A	.	.	1cc
2.A	.	.	.
.	.	2e	4b
4B	.	.	4a
=26	=26	=26	=26
1c	1r	1e	1g
2A	2r	2f	2a
2G	[2d	[2g	[2b
=27	=27	=27	=27
2A	4d]	4g]	4b]
.	4c	4f	4a
2F	1c	1f	1a
1G	.	.	.
.	2B	2e	2g
=28	=28	=28	=28
1F	1c	1f	[0a
[1F	[1f	1r	.
=29	=29	=29	=29
2F]	1f]	1.c	0a]
2F	.	.	.
2.F	1f	.	.
.	.	2c	.
4G	.	.	.
=30	=30	=30	=30
1.A	2.e	2.c	0r
.	4d	4d	.
.	2c	1e	.
2G	2B	.	.
=31	=31	=31	=31
2F	2A	2f	0r
2.G	2.B	2.e	.
4F	4A	4d	.
2D	[2A	[2d	.
=32	=32	=32	=32
1E	2A]	2d]	1r
.	2G	2c#i	.
1D	1A	1d	[1ff
=33	=33	=33	=33
1r	0d	2r	1ff]
.	.	4d	.
.	.	4e	.
1D	.	4f	1ff
.	.	4g	.
.	.	[2a	.
=34	=34	=34	=34
1.A	2.c	2a]	2.ee
.	.	4g	.
.	4A	4f	4dd
.	4c	2e	2cc
.	4d	.	.
2E	2e	2g	2b
=35	=35	=35	=35
2F	2A	2f	2a
2G	2g	2d	2.b
1A	2f	2r	.
.	.	.	4a
.	[2e	2c	[2a
=36	=36	=36	=36
1B	4e]	1d	2a]
.	4d	.	.
.	1d	.	2g#i
1A	.	1e	[1a
.	2c#i	.	.
=37	=37	=37	=37
1.d	1d	1f	1a]
.	2f	2d	1a
2c	2e	[2e	.
=38	=38	=38	=38
1B	2f	4e]	1d
.	.	4d	.
.	2g	1d	.
1A	1a	.	1e
.	.	2c#i	.
=39	=39	=39	=39
[0D	1.f	1d	1d
.	.	1r	1r
.	4e	.	.
.	4d	.	.
=40	=40	=40	=40
0D]	0d	1.f	1.a
.	.	4e	2b
.	.	4d	.
=41	=41	=41	=41
0r	0r	2e	2cc
.	.	2d	1dd
.	.	2f	.
.	.	2g	4cc
.	.	.	4b
=42	=42	=42	=42
1.F	1.A	1a	1cc
.	.	1r	1r
4E	2B	.	.
4D	.	.	.
=43	=43	=43	=43
2E	2c	0r	0r
2D	1d	.	.
2F	.	.	.
2G	4c	.	.
.	4B	.	.
=44	=44	=44	=44
2.A	2.c	0r	0r
4B	4d	.	.
2c	2e	.	.
[2d	2d	.	.
=45	=45	=45	=45
2d]	2.f	0r	0r
4c	.	.	.
4B	4g	.	.
2A	2a	.	.
[2B	[2g	.	.
=46	=46	=46	=46
2B]	2g]	0r	0r
2A	1f	.	.
1G	.	.	.
.	2e	.	.
=47	=47	=47	=47
1F	1f	2.c	2.a
.	.	4d	4b
1r	1r	2e	2cc
.	.	2d	[2dd
=48	=48	=48	=48
0r	0r	2.f	2dd]
.	.	.	4cc
.	.	4g	4b
.	.	2a	2a
.	.	[2g	[2b
=49	=49	=49	=49
0r	1r	2g]	2b]
.	.	1f	2a
.	1c	.	1g
.	.	2e	.
=50	=50	=50	=50
1D	1.d	1f	1f
1D	.	1a	2r
.	4c	.	[2ff
.	4B	.	.
=51	=51	=51	=51
1D	2A	1a	2ff]
.	2B	.	4ee
.	.	.	4dd
[1A	2.c	[1a	2ff
.	.	.	2ee
.	4d	.	.
=52	=52	=52	=52
2A]	2e	2a]	2cc
2B	2d	4g	2.dd
.	.	4f	.
1c	2e	1e	.
.	.	.	4cc
.	[2g	.	[2cc
=53	=53	=53	=53
1d	4g]	1f	2cc]
.	4f	.	.
.	1f	.	2b
1c	.	1g	1cc
.	2e	.	.
=54	=54	=54	=54
2.F	1f	1r	1a
4G	.	.	.
4A	1r	[1c	1r
4B	.	.	.
2c	.	.	.
=55	=55	=55	=55
2A	0r	2c]	0r
2B	.	2d	.
1G	.	2e	.
.	.	2d	.
=56	=56	=56	=56
1F	0r	1f	1.cc
1r	.	2e	.
.	.	2d	2dd
=57	=57	=57	=57
0r	0r	2c	2ee
.	.	2.d	2dd
.	.	.	1ff
.	.	4e	.
.	.	4f	.
.	.	4g	.
=58	=58	=58	=58
0r	0r	2a	2ee
.	.	2b	2dd
.	.	2.a	2cc
.	.	.	[2ff
.	.	4g	.
=59	=59	=59	=59
0r	0r	2e	4ff]
.	.	.	4ee
.	.	2g	1ee
.	.	1f	.
.	.	.	2dd
=60	=60	=60	=60
1r	2r	0e	1ee
.	2A	.	.
2.A	2.c	.	1r
4B	4d	.	.
=61	=61	=61	=61
2c	2e	0r	0r
2d	2f	.	.
2B	2.g	.	.
[2c	.	.	.
.	4f	.	.
=62	=62	=62	=62
4c]	4e	2r	2r
4B	4d	.	.
1A	1f	1c	2a
.	.	.	2.cc
4G	4e	4B	.
4F	4d	4A	4dd
=63	=63	=63	=63
2E	2c	2G	2ee
2D	2d	2A	2ff
2.E	2.B	2G	2.gg
.	.	[2g	.
4F	4A	.	4ff
=64	=64	=64	=64
2G	2B	2g]	4ee
.	.	.	4dd
2F	2c	2a	1ff
1D	2d	2f	.
.	[2f	[2a	4ee
.	.	.	4dd
=65	=65	=65	=65
2A	2f]	2a]	2cc
2B	4e	2g	1dd
.	4d	.	.
1A	1e	1a	.
.	.	.	2cc#i
=66	=66	=66	=66
[0D	[0d	0f	0dd
=67	=67	=67	=67
0D]	0d]	1r	1r
.	.	1d	1dd
=68	=68	=68	=68
1r	1r	0f	0dd
1d	1d	.	.
=69	=69	=69	=69
1.d	1.f	0r	0r
4c	4e	.	.
4B	4d	.	.
=70	=70	=70	=70
2.A	2f	0r	0r
.	2e	.	.
4G	.	.	.
2A	2c	.	.
2B-i	2d	.	.
=71	=71	=71	=71
2A	1e	0r	0r
2G	.	.	.
2.F	1f	.	.
4G	.	.	.
=72	=72	=72	=72
4A	1e	0r	0r
4B	.	.	.
2c	.	.	.
2A	2c	.	.
[2B	[2d	.	.
=73	=73	=73	=73
2B]	2d]	0r	0r
1A	2c	.	.
.	1B	.	.
2G#i	.	.	.
=74	=74	=74	=74
0A	1A	1r	1r
.	1r	1a	1a
=75	=75	=75	=75
0r	0r	1.a	1.cc
.	.	4g	4b
.	.	4f	4a
=76	=76	=76	=76
0r	0r	2.e	2cc
.	.	.	2b
.	.	4d	.
.	.	2e	2g
.	.	2f	2a
=77	=77	=77	=77
0r	0r	2e	1b
.	.	2d	.
.	.	2.c	1cc
.	.	4d	.
=78	=78	=78	=78
0r	0r	4e	1b
.	.	4f	.
.	.	2g	.
.	.	2e	2g
.	.	[2f	[2a
=79	=79	=79	=79
0r	0r	2f]	2a]
.	.	1e	2g
.	.	.	1f
.	.	2d	.
=80	=80	=80	=80
0r	1r	0e	[0e
.	[1g	.	.
=81	=81	=81	=81
1.c	1g]	0r	0e]
.	1g	.	.
2B	.	.	.
=82	=82	=82	=82
2.A	2f	0r	0r
.	1e	.	.
4G	.	.	.
1A	.	.	.
.	4d	.	.
.	4c	.	.
=83	=83	=83	=83
0G	2B	0r	1.g
.	2.e	.	.
.	4d	.	.
.	[2d	.	2f
=84	=84	=84	=84
0A	2d]	1.a	2.e
.	4c#i	.	.
.	4B	.	4d
.	1c#i	.	1e
.	.	2g	.
=85	=85	=85	=85
1D	1d	2.f	1d
.	.	4e	.
1r	2.G	1g	[1dd
.	4A	.	.
=86	=86	=86	=86
0r	2B	2f	2dd]
.	2c	2e	2cc
.	1G	1d	2b
.	.	.	2a
=87	=87	=87	=87
0r	1.g	2.c	1cc
.	.	4d	.
.	.	2e	2b
.	2f	2f	2a
=88	=88	=88	=88
1r	2.e	1c	1g
.	4d	.	.
[1d	[1f	1r	[1a
=89	=89	=89	=89
2d]	2f]	0r	1a]
2c	2e	.	.
2.B	1d	.	1r
4A	.	.	.
=90	=90	=90	=90
1c	2c	1.g	0r
.	2e	.	.
2B	2.d	.	.
2A	.	2f	.
.	4c	.	.
=91	=91	=91	=91
1G	2B	2e	0r
.	1d	2d	.
2F	.	2f	.
2A	2c	[2e	.
=92	=92	=92	=92
2G	2B	4e]	0r
.	.	4d	.
2F	2A	2d	.
1E	2c	1g	.
.	[2B	.	.
=93	=93	=93	=93
2.D	4B]	1.f	1.dd
.	4A	.	.
.	2.A	.	.
4E	.	.	.
4F	.	.	.
4G	4B	.	.
2A	4c	2e	2cc
.	4d	.	.
=94	=94	=94	=94
2G	2e	2g	2b
2.A	2.c	2f	2a
.	.	2e	2cc
4G	4d	.	.
2E	[2e	[2g	[2b
=95	=95	=95	=95
2G	2e]	2g]	4b]
.	.	.	4a
2A	4d	2f	1a
.	4c	.	.
1E	1B	1e	.
.	.	.	2g#i
=	=	=	=
00A	00A	00e	00a
=||	=||	=||	=||
*M2/1	*M2/1	*M2/1	*M2/1
*met(C|)	*met(C|)	*met(C|)	*met(C|)
!!section: Secunda pars: Gaude, quia meruisti
!!!OMD: Secunda pars: Gaude, quia meruisti
0r	0f	0r	0r
=96	=96	=96	=96
0r	1e	0r	0r
.	1d	.	.
=97	=97	=97	=97
0A	2.e	0r	0r
.	8dL	.	.
.	8eJ	.	.
.	2f	.	.
.	[2e	.	.
=98	=98	=98	=98
1G	4e]	0r	0r
.	4d	.	.
.	4c	.	.
.	4B	.	.
1F	2A	.	.
.	[2c	.	.
=99	=99	=99	=99
1.A	4c]	0r	0r
.	4d	.	.
.	4e	.	.
.	4d	.	.
.	2f	.	.
2G	[2e	.	.
=100	=100	=100	=100
2F	4e]	0r	0r
.	4d	.	.
2D	1d	.	.
1E	.	.	.
.	2c#i	.	.
=101	=101	=101	=101
1D	2.d	0r	0ff
.	4e	.	.
2r	4f	.	.
.	4g	.	.
[2d	[2a	.	.
=102	=102	=102	=102
2d]	4a]	0r	1ee
.	4g	.	.
2c	2e	.	.
1d	1f	.	1dd
=103	=103	=103	=103
1A	1e	0a	2.ee
.	.	.	8ddL
.	.	.	8eeJ
1r	1r	.	2ff
.	.	.	[2ee
=104	=104	=104	=104
0r	0r	1g	4ee]
.	.	.	4dd
.	.	.	4cc
.	.	.	4b
.	.	1f	2a
.	.	.	[2cc
=105	=105	=105	=105
0r	0r	1.a	4cc]
.	.	.	4dd
.	.	.	2ee
.	.	.	2ff
.	.	2g	[2ee
=106	=106	=106	=106
0r	0r	2f	4ee]
.	.	.	4dd
.	.	2d	1dd
.	.	1e	.
.	.	.	2cc#i
=107	=107	=107	=107
0r	0f	1d	2dd
.	.	.	2a
.	.	2r	2cc
.	.	2d	[2b
=108	=108	=108	=108
0r	1e	2A	4b]
.	.	.	4a
.	.	2c	1a
.	1d	1B	.
.	.	.	2g#i
=109	=109	=109	=109
0A	2.e	1A	1a
.	8dL	.	.
.	8eJ	.	.
.	2f	1r	1r
.	[2e	.	.
=110	=110	=110	=110
1G	4e]	0r	0r
.	4d	.	.
.	4c	.	.
.	4B	.	.
1F	2A	.	.
.	[2c	.	.
=111	=111	=111	=111
1.A	4c]	0r	0r
.	4d	.	.
.	2e	.	.
.	2f	.	.
2G	[2e	.	.
=112	=112	=112	=112
2F	4e]	0r	0r
.	4d	.	.
2D	1d	.	.
1E	.	.	.
.	2c#i	.	.
=113	=113	=113	=113
1D	2.d	0r	0ff
.	4e	.	.
2r	4f	.	.
.	4g	.	.
[2d	[2a	.	.
=114	=114	=114	=114
2d]	4a]	0r	1ee
.	4g	.	.
2c	2e	.	.
1d	1f	.	1dd
=115	=115	=115	=115
1A	1e	0a	2.ee
.	.	.	8ddL
.	.	.	8eeJ
1r	2r	.	2ff
.	2A	.	[2ee
=116	=116	=116	=116
0r	2B	1g	4ee]
.	.	.	4dd
.	2c	.	4cc
.	.	.	4b
.	2d	1f	2a
.	[2A	.	[2cc
=117	=117	=117	=117
1A	4A]	1.a	4cc]
.	4B	.	4dd
.	2c	.	2ee
2F	2d	.	2ff
2G	2e	2g	[2ee
=118	=118	=118	=118
2A	2f	2f	4ee]
.	.	.	4dd
2B-i	2g	2d	1dd
1A	1a	1e	.
.	.	.	2cc#i
=119	=119	=119	=119
1D	1r	1f	1dd
[1G	[1d	[1g	[1b
=120	=120	=120	=120
1G]	1d]	1g]	1b]
1G	1d	1g	1b
=121	=121	=121	=121
1.F	1.f	1.a	1cc
.	.	.	2a
2G	2e	2g	[2b
=122	=122	=122	=122
1A	1c	2e	4b]
.	.	.	4a
.	.	1f	1a
1B-i	1d	.	.
.	.	4e	2g
.	.	4d	.
=123	=123	=123	=123
1A	1e	1c	[0a
1r	1f	1d	.
=124	=124	=124	=124
2.A	1.e	1c	0a]
4B	.	.	.
2c	.	1r	.
[2d	2d	.	.
=125	=125	=125	=125
2d]	1e	1r	0r
2c#i	.	.	.
1d	1f	1a	.
=126	=126	=126	=126
0A	1e	1.cc	0ee
.	1r	.	.
.	.	4b	.
.	.	4a	.
=127	=127	=127	=127
0r	0r	2g	1ee
.	.	2a	.
.	.	2f	1ff
.	.	[2a	.
=128	=128	=128	=128
0r	0r	4a]	1.ee
.	.	4g	.
.	.	4a	.
.	.	4b	.
.	.	2cc	.
.	.	2b	2dd
=129	=129	=129	=129
0r	0r	4b	1cc
.	.	4a	.
.	.	1a	.
.	.	.	1b
.	.	2g#i	.
=130	=130	=130	=130
0r	0r	2.a	1a
.	.	4g	.
.	.	4f	1a
.	.	4e	.
.	.	[2f	.
=131	=131	=131	=131
0r	0r	2f]	2.cc
.	.	4e	.
.	.	4d	4dd
.	.	2c	2ee
.	.	2d	[2ff
=132	=132	=132	=132
0r	0r	2.e	4ff]
.	.	.	4ee
.	.	.	1ee
.	.	4g	.
.	.	1f	.
.	.	.	2dd
=133	=133	=133	=133
1r	0r	0e	0ee
1A	.	.	.
=134	=134	=134	=134
1.c	0e	0r	0r
4B	.	.	.
4A	.	.	.
=135	=135	=135	=135
2G	1e	0r	0r
2A	.	.	.
2F	1f	.	.
[2A	.	.	.
=136	=136	=136	=136
4A]	1.e	0r	0r
4G	.	.	.
4A	.	.	.
4B	.	.	.
2c	.	.	.
[2B	2d	.	.
=137	=137	=137	=137
4B]	1c	0r	0r
4A	.	.	.
1A	.	.	.
.	1B	.	.
2G#i	.	.	.
=138	=138	=138	=138
2.A	1A	0r	0r
4G	.	.	.
4F	1A	.	.
4E	.	.	.
[2F	.	.	.
=139	=139	=139	=139
2F]	2c	0r	0r
4E	2d	.	.
4D	.	.	.
2C	2e	.	.
2D	[2f	.	.
=140	=140	=140	=140
2.E	4f]	0r	0r
.	4e	.	.
.	1e	.	.
4G	.	.	.
1F	.	.	.
.	2d	.	.
=141	=141	=141	=141
0E	0e	1.g	1r
.	.	.	[1b
.	.	2g	.
=142	=142	=142	=142
0r	0r	1g	2b]
.	.	.	2b
.	.	2e	2cc
.	.	2g	2b
=143	=143	=143	=143
1r	0r	1f	2.cc
.	.	.	4dd
[1c	.	2e	1ee
.	.	2e	.
=144	=144	=144	=144
2c]	1.e	2.g	2ee
2c	.	.	2.gg
.	.	4f	.
1c	.	4e	.
.	.	4d	4ff
.	2e	[2c	4ee
.	.	.	4dd
=145	=145	=145	=145
2A	2f	2c]	1cc
2c	2e	1e	.
1B-X	2.f	.	1dd
.	.	2d	.
.	4g	.	.
=146	=146	=146	=146
1A	1a	1e	1cc
2r	2f	[1a	1cc
2A	2e	.	.
=147	=147	=147	=147
1d	1f	2a]	2dd
.	.	2b	1ff
1c	1g	1cc	.
.	.	.	2ee
=148	=148	=148	=148
0F	0f	0a	1ff
.	.	.	1r
=149	=149	=149	=149
0r	0r	2r	1ff
.	.	2f	.
.	.	2g	2ee
.	.	2g	2dd
=150	=150	=150	=150
0r	0r	2a	2cc
.	.	2b-i	2dd
.	.	2.a	2.cc
.	.	4g	4b
=151	=151	=151	=151
2r	1f	1a	1a
2F	.	.	.
2G	2e	1r	1r
2G	2d	.	.
=152	=152	=152	=152
2A	2c	0r	0r
2B-i	2d	.	.
2.A	2.c	.	.
4G	4B	.	.
=153	=153	=153	=153
1A	1A	2r	1cc
.	.	2c	.
1r	1r	2d	2b
.	.	2d	2a
=154	=154	=154	=154
0r	0r	2e	2g
.	.	2f	2a
.	.	2.e	2.g
.	.	4d	4f
=155	=155	=155	=155
1c	2r	1e	1e
.	2c	.	.
2.B	2d	1r	1r
.	2d	.	.
4A	.	.	.
=156	=156	=156	=156
2G	2e	0r	0r
2A	2f	.	.
2.G	2.e	.	.
4F	4d	.	.
=157	=157	=157	=157
1E	1e	1r	1r
[1A	[1c	[1e	[1a
=158	=158	=158	=158
1A]	1c]	2e]	1a]
.	.	2f	.
1G	1d	1g	1b
=159	=159	=159	=159
1F	1f	1a	1cc
2c	2e	2g	2cc
2d	[2d	[2f	[2a
=160	=160	=160	=160
1B	2d]	2f]	2a]
.	4c	4e	2g
.	4B	4d	.
1A	1c	1e	[1a
=161	=161	=161	=161
0D	0d	0f	1a]
.	.	.	1r
=162	=162	=162	=162
0r	0r	2r	1ff
.	.	2f	.
.	.	2g	2ee
.	.	2g	2dd
=163	=163	=163	=163
0r	0r	2.a	2cc
.	.	.	2dd
.	.	4b-i	.
.	.	2a	2.cc
.	.	2g	.
.	.	.	4b
=164	=164	=164	=164
2r	1f	1a	1a
2F	.	.	.
2G	2e	1r	1r
2G	2d	.	.
=165	=165	=165	=165
2A	2c	0r	0r
2B-i	2d	.	.
2.A	2.c	.	.
4G	4B	.	.
=166	=166	=166	=166
1A	1A	2r	1cc
.	.	2c	.
1r	1r	2d	2b
.	.	2d	2a
=167	=167	=167	=167
0r	0r	2e	2g
.	.	2f	2a
.	.	2.e	2.g
.	.	4d	4f
=168	=168	=168	=168
1c	2r	1e	1e
.	2c	.	.
2.B	2d	1r	1r
.	2d	.	.
4A	.	.	.
=169	=169	=169	=169
2G	2e	0r	0r
2A	2f	.	.
2.G	2.e	.	.
4F	4d	.	.
=170	=170	=170	=170
1E	1e	1r	1r
[1A	[1c	[1e	[1a
=171	=171	=171	=171
1A]	1c]	2e]	1a]
.	.	2f	.
1G	1d	1g	1b
=172	=172	=172	=172
1F	1f	1a	1cc
2c	2e	2g	2cc
2d	[2d	[2f	[2a
=173	=173	=173	=173
1B	2d]	2f]	2a]
.	4c	4e	2g
.	4B	4d	.
1A	1c	1e	[1a
=174	=174	=174	=174
1D	1d	1f	1a]
[1A	[1c	[1e	[1a
=175	=175	=175	=175
1A]	1c]	2e]	1a]
.	.	2f	.
1G	1d	1g	1b
=176	=176	=176	=176
1F	1f	1a	1cc
2c	2e	2g	2cc
2d	[2d	[2f	[2a
=177	=177	=177	=177
1B	2d]	2f]	2a]
.	4c	4e	2g
.	4B	4d	.
1A	1c	1e	1a
=	=	=	=
*M3/1	*M3/1	*M3/1	*M3/1
*met(3)	*met(3)	*met(3)	*met(3)
0D	0d	0f	0a
1r	1r	1r	1r
=178	=178	=178	=178
1d	1f	1a	1dd
1d	1f	1a	1dd
1d	1f	1a	1dd
=179	=179	=179	=179
0A	0e	0a	0cc
1c	1e	1g	1cc
=180	=180	=180	=180
1d	1d	1f	1b
0c	0e	0g	0cc
=181	=181	=181	=181
0F	0c	0f	0a
1r	1r	1r	1r
=182	=182	=182	=182
1A	1c	1e	1a
1d	1d	1f	1b
1c	1e	1g	1cc
=183	=183	=183	=183
0A	0e	0a	0cc
1d	1f	1a	1a
=184	=184	=184	=184
1G	1g	1b-i	1.dd
0A	0e	0a	.
.	.	.	4cc#i
.	.	.	4b
.	.	.	1cc#i
=185	=185	=185	=185
0D	0d	0a	0dd
1r	1r	1r	1r
=186	=186	=186	=186
1d	1f	1a	1dd
1d	1f	1a	1dd
1d	1f	1a	1dd
=187	=187	=187	=187
0A	0e	0a	0cc
1c	1e	1g	1cc
=188	=188	=188	=188
1d	1d	1f	1b
0c	0e	0g	0cc
=189	=189	=189	=189
0F	0c	0f	0a
1r	1r	1r	1r
=190	=190	=190	=190
1A	1c	1e	1a
1d	1d	1f	1b
1c	1e	1g	1cc
=191	=191	=191	=191
0A	0e	0a	0cc
1d	1f	1a	1a
=192	=192	=192	=192
1G	1g	1b-i	1.dd
0A	0e	0a	.
.	.	.	4cc#i
.	.	.	4b
.	.	.	1cc#i
=	=	=	=
*M2/1	*M2/1	*M2/1	*M2/1
*met(C|)	*met(C|)	*met(C|)	*met(C|)
1D	1d	1f	1dd
1r	1r	1r	1r
=193	=193	=193	=193
0A	0c	0e	0a
=194	=194	=194	=194
1d	1d	1f	1b
1c	1e	1g	1cc
=195	=195	=195	=195
0A	0e	0a	0cc
=196	=196	=196	=196
1d	1f	1a	1a
1G	1g	1b	[1dd
=197	=197	=197	=197
0A	0e	0a	2dd]
.	.	.	4cc#i
.	.	.	4b
.	.	.	1cc#i
=198	=198	=198	=198
00Dl	00dl	00al	00ddl
==	==	==	==
*-	*-	*-	*-
!!!system-decoration: [*]
!!!RDF**kern: i = editorial accidental
!!!RDF**kern: l = terminal long
!!!ENC: Benjamin Ory
!!!END: 2022/2/13
!!!EED: Benjamin Ory
!!!EEV: 2022/02/13
!!!YEC: Copyright 2022 Benjamin Ory, All Rights Reserved
!!!ONB: Translated from MusicXML on 2022/02/13
